T: Green Cottage, The
M: 2/4
L: 1/8
K: Bmin
|:fe|d2B2B3B|F2B2B3B|c2A2A2c2| e4f3e|d2B2B3B|F2B2B3B|c2f2fedc|B4B2fe||a2f2a3b|a2f2a3b|a2f2d2e2|f4b3e|d2B2B3B|F2B2B3B|c2A2A2c2|e4f3e||d2B2B3B|F2B2B3B|c2f2fedc|B4B2:|
